react/assets/forus-webshop/resources/_webshop-common/assets/img/file-icon-xls.svg

<svg xmlns="http://www.w3.org/2000/svg" width="24" height="24" fill="none" viewBox="0 0 24 24"><path fill="#E2E5E7" d="M6 0C5.175 0 4.5 0.675 4.5 1.5V22.5C4.5 23.325 5.175 24 6 24H21C21.825 24 22.5 23.325 22.5 22.5V6L16.5 0H6Z"/><path fill="#B0B7BD" d="M18 6H22.5L16.5 0V4.5C16.5 5.325 17.175 6 18 6Z"/><path fill="#CAD1D8" d="M22.5 10.5L18 6H22.5V10.5Z"/><path fill="#318719" d="M19.5 19.5C19.5 19.9125 19.1625 20.25 18.75 20.25H2.25C1.8375 20.25 1.5 19.9125 1.5 19.5V12C1.5 11.5875 1.8375 11.25 2.25 11.25H18.75C19.1625 11.25 19.5 11.5875 19.5 12V19.5Z"/><path fill="#CAD1D8" d="M18.75 20.25H4.5V21H18.75C19.1625 21 19.5 20.6625 19.5 20.25V19.5C19.5 19.9125 19.1625 20.25 18.75 20.25Z"/><path fill="#fff" d="M7.9425 18L6.8975 16.537L5.8635 18H5.0495L6.4795 16.0365L5.1265 14.15H5.935L6.9195 15.5195L7.893 14.15H8.6685L7.321 16.009L8.7675 18H7.9425ZM9.40157 14.15H10.1166V17.395H12.1296V18H9.40157V14.15ZM14.0607 18.055C13.7637 18.055 13.4759 18.0128 13.1972 17.9285C12.9222 17.8442 12.704 17.7323 12.5427 17.593L12.7902 17.0375C12.9479 17.1622 13.1404 17.2648 13.3677 17.3455C13.5987 17.4225 13.8297 17.461 14.0607 17.461C14.3467 17.461 14.5594 17.4152 14.6987 17.3235C14.8417 17.2318 14.9132 17.1108 14.9132 16.9605C14.9132 16.8505 14.8729 16.7607 14.7922 16.691C14.7152 16.6177 14.6162 16.5608 14.4952 16.5205C14.3742 16.4802 14.2092 16.4343 14.0002 16.383C13.7069 16.3133 13.4685 16.2437 13.2852 16.174C13.1055 16.1043 12.9497 15.9962 12.8177 15.8495C12.6894 15.6992 12.6252 15.4975 12.6252 15.2445C12.6252 15.0318 12.682 14.8393 12.7957 14.667C12.913 14.491 13.0872 14.3517 13.3182 14.249C13.5529 14.1463 13.8389 14.095 14.1762 14.095C14.4109 14.095 14.6419 14.1243 14.8692 14.183C15.0965 14.2417 15.2927 14.326 15.4577 14.436L15.2322 14.9915C15.0635 14.8925 14.8875 14.8173 14.7042 14.766C14.5209 14.7147 14.343 14.689 14.1707 14.689C13.8884 14.689 13.6775 14.7367 13.5382 14.832C13.4025 14.9273 13.3347 15.0538 13.3347 15.2115C13.3347 15.3215 13.3732 15.4113 13.4502 15.481C13.5309 15.5507 13.6317 15.6057 13.7527 15.646C13.8737 15.6863 14.0387 15.7322 14.2477 15.7835C14.5337 15.8495 14.7684 15.9192 14.9517 15.9925C15.135 16.0622 15.2909 16.1703 15.4192 16.317C15.5512 16.4637 15.6172 16.6617 15.6172 16.911C15.6172 17.1237 15.5585 17.3162 15.4412 17.4885C15.3275 17.6608 15.1534 17.7983 14.9187 17.901C14.684 18.0037 14.398 18.055 14.0607 18.055Z"/></svg>

<?xml version="1.0" encoding="UTF-8" standalone="no"?><svg width="100%" height="100%" viewBox="0 0 24 24" version="1.1" xmlns="http://www.w3.org/2000/svg" xmlns:xlink="http://www.w3.org/1999/xlink" xml:space="preserve" style="fill-rule:evenodd;clip-rule:evenodd;stroke-linejoin:round;stroke-miterlimit:2;"><path d="M6,0c-0.825,0 -1.5,0.675 -1.5,1.5l0,21c0,0.825 0.675,1.5 1.5,1.5l15,0c0.825,0 1.5,-0.675 1.5,-1.5l0,-16.5l-6,-6l-10.5,0Z" style="fill:#f5f5f5;fill-rule:nonzero;"/><path d="M18,6l4.5,0l-6,-6l0,4.5c0,0.825 0.675,1.5 1.5,1.5Z" style="fill:#cdced2;fill-rule:nonzero;"/><path d="M22.5,10.5l-4.5,-4.5l4.5,0l0,4.5Z" style="fill:#cdced2;fill-opacity:0.29;fill-rule:nonzero;"/><path d="M18.75,20.25l-14.25,0l0,0.75l14.25,0c0.413,0 0.75,-0.337 0.75,-0.75l0,-0.75c0,0.413 -0.337,0.75 -0.75,0.75Z" style="fill:#cdced2;fill-opacity:0.29;fill-rule:nonzero;"/><path d="M19.5,19.5c0,0.413 -0.337,0.75 -0.75,0.75l-16.5,0c-0.413,0 -0.75,-0.337 -0.75,-0.75l0,-7.5c0,-0.412 0.337,-0.75 0.75,-0.75l16.5,0c0.413,0 0.75,0.338 0.75,0.75l0,7.5Z" style="fill:#282b39;fill-rule:nonzero;"/><path d="M7.943,18l-1.046,-1.463l-1.034,1.463l-0.814,0l1.43,-1.963l-1.353,-1.887l0.809,0l0.984,1.37l0.974,-1.37l0.775,0l-1.347,1.859l1.446,1.991l-0.825,0Zm1.46,-3.85l0.715,0l-0,3.245l2.013,0l-0,0.605l-2.728,0l-0,-3.85Zm4.659,3.905c-0.297,0 -0.585,-0.042 -0.864,-0.127c-0.275,-0.084 -0.493,-0.196 -0.654,-0.335l0.247,-0.555c0.158,0.124 0.35,0.227 0.578,0.308c0.231,0.076 0.462,0.115 0.693,0.115c0.286,0 0.498,-0.046 0.638,-0.137c0.143,-0.092 0.214,-0.213 0.214,-0.363c0,-0.11 -0.04,-0.2 -0.121,-0.27c-0.077,-0.073 -0.176,-0.13 -0.297,-0.171c-0.121,-0.04 -0.286,-0.086 -0.495,-0.137c-0.293,-0.07 -0.531,-0.139 -0.715,-0.209c-0.179,-0.07 -0.335,-0.178 -0.467,-0.324c-0.129,-0.151 -0.193,-0.352 -0.193,-0.605c0,-0.213 0.057,-0.406 0.171,-0.578c0.117,-0.176 0.291,-0.315 0.522,-0.418c0.235,-0.103 0.521,-0.154 0.858,-0.154c0.235,0 0.466,0.029 0.693,0.088c0.228,0.059 0.424,0.143 0.589,0.253l-0.226,0.556c-0.168,-0.1 -0.344,-0.175 -0.528,-0.226c-0.183,-0.051 -0.361,-0.077 -0.533,-0.077c-0.283,0 -0.493,0.048 -0.633,0.143c-0.135,0.095 -0.203,0.222 -0.203,0.379c-0,0.111 0.038,0.2 0.115,0.27c0.081,0.07 0.182,0.125 0.303,0.165c0.121,0.04 0.286,0.086 0.495,0.138c0.286,0.066 0.52,0.135 0.704,0.209c0.183,0.069 0.339,0.177 0.467,0.324c0.132,0.147 0.198,0.345 0.198,0.594c0,0.213 -0.058,0.405 -0.176,0.577c-0.113,0.173 -0.288,0.31 -0.522,0.413c-0.235,0.103 -0.521,0.154 -0.858,0.154Z" style="fill:#fff;fill-rule:nonzero;"/></svg>
